src/assets/images/play_progress.svg

<svg fill="none" height="47" viewBox="0 0 47 47" width="47" xmlns="http://www.w3.org/2000/svg"><path d="m31.3913 23.7393-12.913-8.1304v15.7826z" fill="#fff"/><circle cx="23.5" cy="23.5" r="15.5" stroke="#fff" stroke-width="2"/><path d="m38.5043 13.5564c-1.7205-2.5961-4.0852-4.70135-6.863-6.10999-2.7777-1.40865-5.8734-2.07246-8.9844-1.92655-3.1111.14591-6.1311 1.09655-8.7648 2.75899-2.6336 1.66245-4.79091 3.97985-6.26089 6.72555-1.46999 2.7458-2.20238 5.8259-2.1256 8.9395.07679 3.1135.96013 6.1539 2.56368 8.8238 1.60354 2.67 3.87241 4.8782 6.58481 6.4088 2.7125 1.5306 5.7756 2.3312 8.8901 2.3235" stroke="#fa7c05" stroke-miterlimit="1.33344" stroke-width="3"/></svg>

<svg width="47" height="47" viewBox="0 0 47 47" fill="none" xmlns="http://www.w3.org/2000/svg">
<path d="M31.3913 23.7393L18.4783 15.6089V31.3915L31.3913 23.7393Z" fill="white"/>
<circle cx="23.5" cy="23.5" r="15.5" stroke="white" stroke-width="2"/>
<path d="M38.5043 13.5564C36.7838 10.9603 34.4191 8.85505 31.6413 7.44641C28.8636 6.03776 25.7679 5.37395 22.6569 5.51986C19.5458 5.66577 16.5258 6.61641 13.8921 8.27885C11.2585 9.9413 9.10119 12.2587 7.63121 15.0044C6.16122 17.7502 5.42883 20.8303 5.50561 23.9439C5.5824 27.0574 6.46574 30.0978 8.06929 32.7677C9.67283 35.4377 11.9417 37.6459 14.6541 39.1765C17.3666 40.7071 20.4297 41.5077 23.5442 41.5" stroke="#FA7C05" stroke-width="3" stroke-miterlimit="1.33344"/>
</svg>
